(Project THF-HOBIT-JIG)
(Created by Estlcam version 11 build 11.245)
(Machining time about 00:00:12 hours)

(Required tools:)
(End mill 1/4)

G90
M03 S2000
G00 Z0.19685


(No. 1: Hole 3)
G00 X1.43343 Y0.58391
G00 Z0.01969
G01 Z0.00000 F15.00 S2000
G01 Z-0.08000
G03 X1.48829 Y0.52784 I0.10171 J0.04465 F30.00
G03 X1.69825 Y0.44233 I0.42727 J0.74864
G03 X2.49268 Y0.37165 I0.57643 J1.97878
G03 X2.55458 Y0.44770 I-0.01323 J0.07399
G01 Y0.80230
G03 X2.47775 Y0.88015 I-0.07627 J0.00157
G03 X1.60444 Y0.77727 I-0.20182 J-2.04489
G03 X1.46485 Y0.70722 I0.25214 J-0.67652
G03 X1.43343 Y0.58391 I0.06494 J-0.08221
G01 Z-0.15000 F15.00
G03 X1.48829 Y0.52784 I0.10171 J0.04465 F30.00
G03 X1.69825 Y0.44233 I0.42727 J0.74864
G03 X2.49268 Y0.37165 I0.57643 J1.97878
G03 X2.55458 Y0.44770 I-0.01323 J0.07399
G01 Y0.80230
G03 X2.47775 Y0.88015 I-0.07627 J0.00157
G03 X1.60444 Y0.77727 I-0.20182 J-2.04489
G03 X1.46485 Y0.70722 I0.25214 J-0.67652
G03 X1.43343 Y0.58391 I0.06494 J-0.08221
G00 Z0.19685

M05
M30
