(Project THF-HOBIT-JIG)
(Created by Estlcam version 11 build 11.245)
(Machining time about 00:00:07 hours)

(Required tools:)
(End mill 1/4)

G90
M03 S2000
G00 Z0.19685


(No. 1: Hole 5)
G00 X0.63447 Y-0.04761
G00 Z0.01969
G01 Z0.00000 F15.00 S2000
G01 Z-0.15000
G03 X0.70317 Y-0.11643 I0.11894 J0.05002 F30.00
G03 X0.92672 Y-0.20200 I0.51964 J1.02285
G03 X1.69313 Y-0.26781 I0.54902 J1.89821
G03 X1.75529 Y-0.19170 I-0.01299 J0.07404
G01 Y0.19170
G03 X1.68055 Y0.26939 I-0.07597 J0.00171
G03 X0.79351 Y0.15751 I-0.20461 J-1.95024
G03 X0.67823 Y0.10222 I0.30313 J-0.77988
G03 X0.64251 Y0.06367 I0.07190 J-0.10244
G01 X0.64273 Y0.06403
G03 X0.63447 Y-0.04761 I0.10703 J-0.06404
G00 Z0.19685

M05
M30
