(Project THF-HOBIT-JIG)
(Created by Estlcam version 11 build 11.245)
(Machining time about 00:00:07 hours)

(Required tools:)
(End mill 1/4)

G90
M03 S2000
G00 Z0.19685


(No. 1: Hole 7)
G00 X0.76078 Y-0.15632
G00 Z0.01969
G01 Z0.00000 F15.00 S2000
G01 Z-0.15000
G03 X0.85523 Y-0.19255 I0.27333 J0.57122 F30.00
G03 X1.69574 Y-0.26473 I0.57105 J1.71990
G03 X1.75114 Y-0.19015 I-0.01978 J0.07256
G01 Y0.19015
G03 X1.68279 Y0.26718 I-0.07535 J0.00197
G03 X0.77814 Y0.16446 I-0.25447 J-1.79397
G03 X0.64780 Y0.06833 I0.14210 J-0.32910
G03 X0.65127 Y-0.07301 I0.09849 J-0.06829
G03 X0.76078 Y-0.15632 I0.27415 J0.24675
G00 Z0.19685

M05
M30
