(Project THF-HOBIT-JIG)
(Created by Estlcam version 11 build 11.245)
(Machining time about 00:01:14 hours)

(Required tools:)
(End mill 1/4)

G90
M03 S2000
G00 Z5.0000


(No. 1: Hole 2)
G00 X37.5482 Y-0.0190
G00 Z0.5000
G02 X35.1670 Y-1.3939 Z0.0780 I-1.5875 J0.0000 F381 S2000
G02 Y1.3558 Z-0.3440 I0.7938 J1.3748
G02 X37.5482 Y-0.0190 Z-0.7660 I0.7938 J-1.3748
G02 X35.1670 Y-1.3939 Z-1.1880 I-1.5875 J0.0000
G02 Y1.3558 Z-1.6100 I0.7938 J1.3748
G02 X37.5482 Y-0.0190 Z-2.0320 I0.7938 J-1.3748
G02 X35.1670 Y-1.3939 I-1.5875 J0.0000
G02 Y1.3558 I0.7938 J1.3748
G02 X37.5482 Y-0.0190 I0.7938 J-1.3748
G02 X37.5924 Y-0.6949 I-1.5651 J-0.4416 F762
G02 X37.3358 Y-1.3942 I-1.7894 J0.2598
G02 X36.7733 Y-1.9807 I-1.6870 J1.0550
G02 X35.9607 Y-2.3209 I-1.2273 J1.7909
G02 X35.0115 Y-2.3107 I-0.4498 J2.3088
G02 X34.0805 Y-1.8993 I0.5374 J2.4753
G02 X33.3391 Y-1.1050 I1.5729 J2.2113
G02 X32.9445 Y-0.0190 I2.4680 J1.5115
G02 X33.0091 Y1.2036 I3.0409 J0.4523
G02 X33.5753 Y2.3663 I3.1507 J-0.8151
G02 X34.6014 Y3.2626 I2.7275 J-2.0871
G02 X35.9607 Y3.7116 I1.7908 J-3.1395
G02 X37.4567 Y3.5926 I0.4531 J-3.7669
G02 X38.8512 Y2.8715 I-1.0920 J-3.8207
G02 X39.9024 Y1.6136 I-2.5988 J-3.2398
G02 X40.4057 Y-0.0190 I-3.8075 J-2.0678
G02 X40.2324 Y-1.7884 I-4.4894 J-0.4533
G02 X39.3564 Y-3.4147 I-4.4877 J1.3682
G02 X37.8668 Y-4.6207 I-3.7499 J3.1088
G02 X35.9607 Y-5.1054 I-2.1679 J4.5350
G02 X34.0143 Y-4.7182 I0.0000 J5.0863
G02 X32.3641 Y-3.6156 I1.9465 J4.6992
G02 X31.2616 Y-1.9655 I3.5966 J3.5966
G02 X30.8744 Y-0.0190 I4.6992 J1.9465
G02 X31.2616 Y1.9274 I5.0863 J0.0000
G02 X32.3641 Y3.5775 I4.6992 J-1.9465
G02 X34.0143 Y4.6801 I3.5966 J-3.5966
G02 X35.9607 Y5.0673 I1.9465 J-4.6992
G02 X37.9072 Y4.6801 I0.0000 J-5.0863
G02 X39.5573 Y3.5775 I-1.9465 J-4.6992
G02 X40.6599 Y1.9274 I-3.5966 J-3.5966
G02 X41.0471 Y-0.0190 I-4.6992 J-1.9465
G02 X33.4176 Y-4.4240 I-5.0864 J0.0000
G02 Y4.3859 I2.5432 J4.4049
G02 X41.0471 Y-0.0190 I2.5432 J-4.4049
G01 X40.3745 Y-2.5175
G01 X42.9330 Y-3.9052
G01 X42.3615 Y-4.8768
G00 Z5.0000
G00 X39.9728 Y3.0834
G00 Z0.5000
G01 Z-2.0320 F381
G01 X42.3044 Y4.8387 F762
G01 X42.9330 Y3.8672
G00 Z5.0000
G00 X31.7515 Y-2.8870
G00 Z0.5000
G01 Z-2.0320 F381
G01 X29.2742 Y-4.4767 F762
G02 Y4.4387 I6.9015 J4.4577
G01 X28.4413 Y-2.7906
G01 X25.6737 Y-3.7338
G02 Y3.6957 I10.0766 J3.7148
G01 X25.2448 Y-2.2384
G01 X22.3590 Y-2.8194
G02 Y2.7813 I13.2988 J2.8004
G01 X22.1333 Y-1.3346
G01 X19.2158 Y-1.5621
G01 Y1.5240
G00 Z5.0000
G00 X19.2729 Y1.5812
G00 Z-1.5320
G01 Z-2.0320 F381
G01 X18.5598 Y2.9049 F762
G02 X23.2222 Y4.6243 I10.5830 J-21.5167
G02 X42.9718 Y6.3101 I14.2373 J-50.2658
G02 X44.4394 Y4.5010 I-0.3142 J-1.7547
G01 Y-4.5010
G02 X42.7852 Y-6.3362 I-1.7864 J-0.0529
G01 X42.8083 Y-6.3338
G02 X20.4863 Y-3.7520 I-5.3164 J51.8223
G02 X16.9830 Y-2.0020 I6.4690 J17.3324
G02 X17.4641 Y2.3104 I1.5670 J2.0082
G02 X18.5598 Y2.9049 I10.1795 J-17.4542
G00 Z5.0000
G00 X37.5482 Y-0.0190
G00 Z-1.5320
G02 X35.1670 Y-1.3939 Z-1.9117 I-1.5875 J0.0000 F381
G02 Y1.3558 Z-2.2913 I0.7938 J1.3748
G02 X37.5482 Y-0.0190 Z-2.6710 I0.7938 J-1.3748
G02 X35.1670 Y-1.3939 Z-3.0507 I-1.5875 J0.0000
G02 Y1.3558 Z-3.4303 I0.7938 J1.3748
G02 X37.5482 Y-0.0190 Z-3.8100 I0.7938 J-1.3748
G02 X35.1670 Y-1.3939 I-1.5875 J0.0000
G02 Y1.3558 I0.7938 J1.3748
G02 X37.5482 Y-0.0190 I0.7938 J-1.3748
G02 X37.5924 Y-0.6949 I-1.5651 J-0.4416 F762
G02 X37.3358 Y-1.3942 I-1.7894 J0.2598
G02 X36.7733 Y-1.9807 I-1.6870 J1.0550
G02 X35.9607 Y-2.3209 I-1.2273 J1.7909
G02 X35.0115 Y-2.3107 I-0.4498 J2.3088
G02 X34.0805 Y-1.8993 I0.5374 J2.4753
G02 X33.3391 Y-1.1050 I1.5729 J2.2113
G02 X32.9445 Y-0.0190 I2.4680 J1.5115
G02 X33.0091 Y1.2036 I3.0409 J0.4523
G02 X33.5753 Y2.3663 I3.1507 J-0.8151
G02 X34.6014 Y3.2626 I2.7275 J-2.0871
G02 X35.9607 Y3.7116 I1.7908 J-3.1395
G02 X37.4567 Y3.5926 I0.4531 J-3.7669
G02 X38.8512 Y2.8715 I-1.0920 J-3.8207
G02 X39.9024 Y1.6136 I-2.5988 J-3.2398
G02 X40.4057 Y-0.0190 I-3.8075 J-2.0678
G02 X40.2324 Y-1.7884 I-4.4894 J-0.4533
G02 X39.3564 Y-3.4147 I-4.4877 J1.3682
G02 X37.8668 Y-4.6207 I-3.7499 J3.1088
G02 X35.9607 Y-5.1054 I-2.1679 J4.5350
G02 X34.0143 Y-4.7182 I0.0000 J5.0863
G02 X32.3641 Y-3.6156 I1.9465 J4.6992
G02 X31.2616 Y-1.9655 I3.5966 J3.5966
G02 X30.8744 Y-0.0190 I4.6992 J1.9465
G02 X31.2616 Y1.9274 I5.0863 J0.0000
G02 X32.3641 Y3.5775 I4.6992 J-1.9465
G02 X34.0143 Y4.6801 I3.5966 J-3.5966
G02 X35.9607 Y5.0673 I1.9465 J-4.6992
G02 X37.9072 Y4.6801 I0.0000 J-5.0863
G02 X39.5573 Y3.5775 I-1.9465 J-4.6992
G02 X40.6599 Y1.9274 I-3.5966 J-3.5966
G02 X41.0471 Y-0.0190 I-4.6992 J-1.9465
G02 X33.4176 Y-4.4240 I-5.0864 J0.0000
G02 Y4.3859 I2.5432 J4.4049
G02 X41.0471 Y-0.0190 I2.5432 J-4.4049
G01 X40.3745 Y-2.5175
G01 X42.9330 Y-3.9052
G01 X42.3615 Y-4.8768
G00 Z5.0000
G00 X39.9728 Y3.0834
G00 Z-1.5320
G01 Z-3.8100 F381
G01 X42.3044 Y4.8387 F762
G01 X42.9330 Y3.8672
G00 Z5.0000
G00 X31.7515 Y-2.8870
G00 Z-1.5320
G01 Z-3.8100 F381
G01 X29.2742 Y-4.4767 F762
G02 Y4.4387 I6.9015 J4.4577
G01 X28.4413 Y-2.7906
G01 X25.6737 Y-3.7338
G02 Y3.6957 I10.0766 J3.7148
G01 X25.2448 Y-2.2384
G01 X22.3590 Y-2.8194
G02 Y2.7813 I13.2988 J2.8004
G01 X22.1333 Y-1.3346
G01 X19.2158 Y-1.5621
G01 Y1.5240
G00 Z5.0000
G00 X19.2729 Y1.5812
G00 Z-3.3100
G01 Z-3.8100 F381
G01 X18.5598 Y2.9049 F762
G02 X23.2222 Y4.6243 I10.5830 J-21.5167
G02 X42.9718 Y6.3101 I14.2373 J-50.2658
G02 X44.4394 Y4.5010 I-0.3142 J-1.7547
G01 Y-4.5010
G02 X42.7852 Y-6.3362 I-1.7864 J-0.0529
G01 X42.8083 Y-6.3338
G02 X20.4863 Y-3.7520 I-5.3164 J51.8223
G02 X16.9830 Y-2.0020 I6.4690 J17.3324
G02 X17.4641 Y2.3104 I1.5670 J2.0082
G02 X18.5598 Y2.9049 I10.1795 J-17.4542
G00 Z5.0000


(No. 2: Hole 2)
G00 X16.1896 Y-0.9546 Z5.0000
G00 Z0.5000
G01 Z-2.0320 F381
G01 X16.0720 Y-1.0025 F762
G02 X17.4001 Y2.4201 I2.4887 J1.0032
G02 X22.8250 Y4.6425 I10.9669 J-19.0377
G02 X42.9940 Y6.4352 I14.6337 J-50.2869
G02 X44.5664 Y4.5033 I-0.3361 J-1.8794
G01 Y-4.5033
G02 X42.8004 Y-6.4623 I-1.9128 J-0.0511
G01 X42.8211 Y-6.4602
G02 X20.4414 Y-3.8708 I-5.3292 J51.9475
G02 X16.9050 Y-2.1023 I6.4933 J17.4042
G02 X16.0720 Y-1.0025 I1.6409 J2.1082
G01 X16.1896 Y-0.9546
G00 Z0.0000
G01 Z-3.8100 F381
G01 X16.0720 Y-1.0025 F762
G02 X17.4001 Y2.4201 I2.4887 J1.0032
G02 X22.8250 Y4.6425 I10.9669 J-19.0377
G02 X42.9940 Y6.4352 I14.6337 J-50.2869
G02 X44.5664 Y4.5033 I-0.3361 J-1.8794
G01 Y-4.5033
G02 X42.8004 Y-6.4623 I-1.9128 J-0.0511
G01 X42.8211 Y-6.4602
G02 X20.4414 Y-3.8708 I-5.3292 J51.9475
G02 X16.9050 Y-2.1023 I6.4933 J17.4042
G02 X16.0720 Y-1.0025 I1.6409 J2.1082
G01 X16.1896 Y-0.9546
G00 Z0.0000
G00 Z5.0000
G00 X0.0000 Y0.0000

M05
M30
