(Project THF-HOBIT-JIG)
(Created by Estlcam version 11 build 11.245)
(Machining time about 00:00:07 hours)

(Required tools:)
(End mill 1/4)

G90
M03 S2000
G00 Z0.19685


(No. 1: Hole 4)
G00 X0.64152 Y-0.04993
G00 Z0.01969
G01 Z0.00000 F15.00 S2000
G01 Z-0.15000
G03 X0.68152 Y-0.09424 I0.08359 J0.03526 F30.00
G03 X0.88592 Y-0.18972 I0.38786 J0.56375
G03 X1.69313 Y-0.26780 I0.58908 J1.87828
G03 X1.75529 Y-0.19170 I-0.01299 J0.07404
G01 Y0.19170
G03 X1.67819 Y0.26963 I-0.07632 J0.00160
G03 X0.81237 Y0.16443 I-0.20142 J-1.95794
G03 X0.66098 Y0.07872 I0.22862 J-0.58034
G03 X0.63247 Y-0.01537 I0.08417 J-0.07686
G03 X0.64152 Y-0.04993 I0.12143 J0.01334
G00 Z0.19685

M05
M30
