(Project THF-HOBIT-JIG)
(Created by Estlcam version 11 build 11.245)
(Machining time about 00:00:07 hours)

(Required tools:)
(End mill 1/4)

G90
M03 S2000
G00 Z0.19685


(No. 1: Hole 5)
G00 X1.43447 Y0.57739
G00 Z0.01969
G01 Z0.00000 F15.00 S2000
G01 Z-0.15000
G03 X1.50317 Y0.50857 I0.11894 J0.05002 F30.00
G03 X1.72672 Y0.42300 I0.51964 J1.02285
G03 X2.49313 Y0.35719 I0.54902 J1.89821
G03 X2.55529 Y0.43330 I-0.01299 J0.07404
G01 Y0.81670
G03 X2.48055 Y0.89439 I-0.07597 J0.00171
G03 X1.59351 Y0.78251 I-0.20461 J-1.95024
G03 X1.47823 Y0.72722 I0.30313 J-0.77988
G03 X1.44251 Y0.68867 I0.07190 J-0.10244
G01 X1.44273 Y0.68903
G03 X1.43447 Y0.57739 I0.10703 J-0.06404
G00 Z0.19685

M05
M30
