(Project THF-HOBIT-JIG)
(Created by Estlcam version 11 build 11.245)
(Machining time about 00:01:11 hours)

(Required tools:)
(End mill 1/4)

G90
M03 S2000
G00 Z0.19685


(No. 1: Hole 8)
G00 X1.42573 Y-0.00043
G00 Z0.01969
G03 X1.33198 Y0.05370 Z0.00307 I-0.06250 J0.00000 F15.00 S2000
G03 Y-0.05456 Z-0.01354 I0.03125 J-0.05413
G03 X1.42573 Y-0.00043 Z-0.03016 I0.03125 J0.05413
G03 X1.33198 Y0.05370 Z-0.04677 I-0.06250 J0.00000
G03 Y-0.05456 Z-0.06339 I0.03125 J-0.05413
G03 X1.42573 Y-0.00043 Z-0.08000 I0.03125 J0.05413
G03 X1.33198 Y0.05370 I-0.06250 J0.00000
G03 Y-0.05456 I0.03125 J-0.05413
G03 X1.42573 Y-0.00043 I0.03125 J0.05413
G03 X1.42747 Y0.02618 I-0.06162 J0.01739 F30.00
G03 X1.41737 Y0.05371 I-0.07045 J-0.01023
G03 X1.39522 Y0.07680 I-0.06642 J-0.04153
G03 X1.36323 Y0.09019 I-0.04832 J-0.07051
G03 X1.32586 Y0.08979 I-0.01771 J-0.09090
G03 X1.28920 Y0.07359 I0.02116 J-0.09745
G03 X1.26002 Y0.04232 I0.06192 J-0.08706
G03 X1.24448 Y-0.00043 I0.09717 J-0.05951
G03 X1.24702 Y-0.04857 I0.11972 J-0.01781
G03 X1.26932 Y-0.09434 I0.12404 J0.03209
G03 X1.30971 Y-0.12963 I0.10738 J0.08217
G03 X1.36323 Y-0.14731 I0.07050 J0.12360
G03 X1.42213 Y-0.14262 I0.01784 J0.14830
G03 X1.47703 Y-0.11423 I-0.04299 J0.15042
G03 X1.51841 Y-0.06471 I-0.10231 J0.12755
G03 X1.53823 Y-0.00043 I-0.14990 J0.08141
G03 X1.53141 Y0.06923 I-0.17675 J0.01785
G03 X1.49692 Y0.13326 I-0.17668 J-0.05387
G03 X1.43827 Y0.18074 I-0.14763 J-0.12239
G03 X1.36323 Y0.20269 I-0.09227 J-0.17612
G03 X1.28488 Y0.18873 I-0.00410 J-0.20385
G03 X1.21845 Y0.14435 I0.07835 J-0.18916
G03 X1.17407 Y0.07792 I0.14478 J-0.14478
G03 X1.15848 Y-0.00043 I0.18916 J-0.07835
G03 X1.17407 Y-0.07879 I0.20475 J0.00000
G03 X1.21845 Y-0.14521 I0.18916 J0.07835
G03 X1.28488 Y-0.18960 I0.14478 J0.14478
G03 X1.36323 Y-0.20518 I0.07835 J0.18916
G03 X1.44158 Y-0.18960 I0.00000 J0.20475
G03 X1.50801 Y-0.14521 I-0.07835 J0.18916
G03 X1.55239 Y-0.07879 I-0.14478 J0.14478
G03 X1.56798 Y-0.00043 I-0.18916 J0.07835
G03 X1.26086 Y0.17689 I-0.20475 J0.00000
G03 Y-0.17775 I0.10238 J-0.17732
G03 X1.56798 Y-0.00043 I0.10238 J0.17732
G01 X1.56220 Y0.04874
G01 X1.67373 Y0.07607
G01 X1.66023 Y0.12332
G01 X1.61748 Y0.19532
G00 Z0.19685
G00 X1.52602 Y-0.12560
G00 Z0.01969
G01 Z-0.08000 F15.00
G01 X1.61748 Y-0.19618 F30.00
G03 X1.67373 Y-0.07468 I-0.12428 J0.13131
G00 Z0.19685
G00 X1.18905 Y0.10745
G00 Z0.01969
G01 Z-0.08000 F15.00
G01 X1.09323 Y0.17057 F30.00
G03 X1.09548 Y-0.17593 I0.27215 J-0.17149
G01 X1.06056 Y0.10160
G01 X0.94923 Y0.13682
G03 X0.95148 Y-0.13993 I0.40422 J-0.13510
G01 X0.93329 Y0.07266
G01 X0.81873 Y0.09407
G03 X0.82098 Y-0.09718 I0.50640 J-0.08968
G00 Z0.19685
G00 X0.82323 Y-0.09943
G00 Z-0.06031
G01 Z-0.08000 F15.00
G01 X0.79907 Y-0.15149 F30.00
G03 X1.69051 Y-0.24541 I0.62768 J1.68000
G03 X1.73114 Y-0.18979 I-0.01460 J0.05333
G01 Y0.18979
G03 X1.68004 Y0.24736 I-0.05545 J0.00225
G03 X0.78616 Y0.14614 I-0.25176 J-1.77419
G03 X0.66326 Y0.05555 I0.13342 J-0.30964
G03 X0.66671 Y-0.06029 I0.08298 J-0.05550
G03 X0.67227 Y-0.06651 I0.08496 J0.07034
G01 X0.67135 Y-0.06552
G01 X0.67091 Y-0.06506
G03 X0.79907 Y-0.15149 I0.25740 J0.24347
G00 Z0.19685
G00 X1.42573 Y-0.00043
G00 Z-0.06031
G03 X1.33198 Y0.05370 Z-0.07526 I-0.06250 J0.00000 F15.00
G03 Y-0.05456 Z-0.09021 I0.03125 J-0.05413
G03 X1.42573 Y-0.00043 Z-0.10516 I0.03125 J0.05413
G03 X1.33198 Y0.05370 Z-0.12010 I-0.06250 J0.00000
G03 Y-0.05456 Z-0.13505 I0.03125 J-0.05413
G03 X1.42573 Y-0.00043 Z-0.15000 I0.03125 J0.05413
G03 X1.33198 Y0.05370 I-0.06250 J0.00000
G03 Y-0.05456 I0.03125 J-0.05413
G03 X1.42573 Y-0.00043 I0.03125 J0.05413
G03 X1.42747 Y0.02618 I-0.06162 J0.01739 F30.00
G03 X1.41737 Y0.05371 I-0.07045 J-0.01023
G03 X1.39522 Y0.07680 I-0.06642 J-0.04153
G03 X1.36323 Y0.09019 I-0.04832 J-0.07051
G03 X1.32586 Y0.08979 I-0.01771 J-0.09090
G03 X1.28920 Y0.07359 I0.02116 J-0.09745
G03 X1.26002 Y0.04232 I0.06192 J-0.08706
G03 X1.24448 Y-0.00043 I0.09717 J-0.05951
G03 X1.24702 Y-0.04857 I0.11972 J-0.01781
G03 X1.26932 Y-0.09434 I0.12404 J0.03209
G03 X1.30971 Y-0.12963 I0.10738 J0.08217
G03 X1.36323 Y-0.14731 I0.07050 J0.12360
G03 X1.42213 Y-0.14262 I0.01784 J0.14830
G03 X1.47703 Y-0.11423 I-0.04299 J0.15042
G03 X1.51841 Y-0.06471 I-0.10231 J0.12755
G03 X1.53823 Y-0.00043 I-0.14990 J0.08141
G03 X1.53141 Y0.06923 I-0.17675 J0.01785
G03 X1.49692 Y0.13326 I-0.17668 J-0.05387
G03 X1.43827 Y0.18074 I-0.14763 J-0.12239
G03 X1.36323 Y0.20269 I-0.09227 J-0.17612
G03 X1.28488 Y0.18873 I-0.00410 J-0.20385
G03 X1.21845 Y0.14435 I0.07835 J-0.18916
G03 X1.17407 Y0.07792 I0.14478 J-0.14478
G03 X1.15848 Y-0.00043 I0.18916 J-0.07835
G03 X1.17407 Y-0.07879 I0.20475 J0.00000
G03 X1.21845 Y-0.14521 I0.18916 J0.07835
G03 X1.28488 Y-0.18960 I0.14478 J0.14478
G03 X1.36323 Y-0.20518 I0.07835 J0.18916
G03 X1.44158 Y-0.18960 I0.00000 J0.20475
G03 X1.50801 Y-0.14521 I-0.07835 J0.18916
G03 X1.55239 Y-0.07879 I-0.14478 J0.14478
G03 X1.56798 Y-0.00043 I-0.18916 J0.07835
G03 X1.26086 Y0.17689 I-0.20475 J0.00000
G03 Y-0.17775 I0.10238 J-0.17732
G03 X1.56798 Y-0.00043 I0.10238 J0.17732
G01 X1.56220 Y0.04874
G01 X1.67373 Y0.07607
G01 X1.66023 Y0.12332
G01 X1.61748 Y0.19532
G00 Z0.19685
G00 X1.52602 Y-0.12560
G00 Z-0.06031
G01 Z-0.15000 F15.00
G01 X1.61748 Y-0.19618 F30.00
G03 X1.67373 Y-0.07468 I-0.12428 J0.13131
G00 Z0.19685
G00 X1.18905 Y0.10745
G00 Z-0.06031
G01 Z-0.15000 F15.00
G01 X1.09323 Y0.17057 F30.00
G03 X1.09548 Y-0.17593 I0.27215 J-0.17149
G01 X1.06056 Y0.10160
G01 X0.94923 Y0.13682
G03 X0.95148 Y-0.13993 I0.40422 J-0.13510
G01 X0.93329 Y0.07266
G01 X0.81873 Y0.09407
G03 X0.82098 Y-0.09718 I0.50640 J-0.08968
G00 Z0.19685
G00 X0.82323 Y-0.09943
G00 Z-0.13031
G01 Z-0.15000 F15.00
G01 X0.79907 Y-0.15149 F30.00
G03 X1.69051 Y-0.24541 I0.62768 J1.68000
G03 X1.73114 Y-0.18979 I-0.01460 J0.05333
G01 Y0.18979
G03 X1.68004 Y0.24736 I-0.05545 J0.00225
G03 X0.78616 Y0.14614 I-0.25176 J-1.77419
G03 X0.66326 Y0.05555 I0.13342 J-0.30964
G03 X0.66671 Y-0.06029 I0.08298 J-0.05550
G03 X0.67227 Y-0.06651 I0.08496 J0.07034
G01 X0.67135 Y-0.06552
G01 X0.67091 Y-0.06506
G03 X0.79907 Y-0.15149 I0.25740 J0.24347
G00 Z0.19685


(No. 2: Hole 8)
G00 X0.76973 Y-0.13843 Z0.19685
G00 Z0.01969
G01 Z-0.08000 F15.00
G01 X0.76078 Y-0.15632 F30.00
G03 X0.85523 Y-0.19255 I0.27333 J0.57122
G03 X1.69574 Y-0.26473 I0.57105 J1.71990
G03 X1.75114 Y-0.19015 I-0.01978 J0.07256
G01 Y0.19015
G03 X1.68279 Y0.26718 I-0.07535 J0.00197
G03 X0.77814 Y0.16446 I-0.25447 J-1.79397
G03 X0.64780 Y0.06833 I0.14210 J-0.32910
G03 X0.65127 Y-0.07301 I0.09849 J-0.06829
G03 X0.76078 Y-0.15632 I0.27415 J0.24675
G01 X0.76973 Y-0.13843
G01 Z-0.15000 F15.00
G01 X0.76078 Y-0.15632 F30.00
G03 X0.85523 Y-0.19255 I0.27333 J0.57122
G03 X1.69574 Y-0.26473 I0.57105 J1.71990
G03 X1.75114 Y-0.19015 I-0.01978 J0.07256
G01 Y0.19015
G03 X1.68279 Y0.26718 I-0.07535 J0.00197
G03 X0.77814 Y0.16446 I-0.25447 J-1.79397
G03 X0.64780 Y0.06833 I0.14210 J-0.32910
G03 X0.65127 Y-0.07301 I0.09849 J-0.06829
G03 X0.76078 Y-0.15632 I0.27415 J0.24675
G01 X0.76973 Y-0.13843
G00 Z0.19685

M05
M30
