(Project THF-HOBIT-JIG)
(Created by Estlcam version 11 build 11.245)
(Machining time about 00:01:16 hours)

(Required tools:)
(End mill 1/4)

G90
M03 S2000
G00 Z0.19685


(No. 1: Hole 2)
G00 X1.47828 Y-0.00075
G00 Z0.01969
G02 X1.38453 Y-0.05488 Z0.00307 I-0.06250 J0.00000 F15.00 S2000
G02 Y0.05338 Z-0.01354 I0.03125 J0.05413
G02 X1.47828 Y-0.00075 Z-0.03016 I0.03125 J-0.05413
G02 X1.38453 Y-0.05488 Z-0.04677 I-0.06250 J0.00000
G02 Y0.05338 Z-0.06339 I0.03125 J0.05413
G02 X1.47828 Y-0.00075 Z-0.08000 I0.03125 J-0.05413
G02 X1.38453 Y-0.05488 I-0.06250 J0.00000
G02 Y0.05338 I0.03125 J0.05413
G02 X1.47828 Y-0.00075 I0.03125 J-0.05413
G02 X1.48002 Y-0.02736 I-0.06162 J-0.01739 F30.00
G02 X1.46991 Y-0.05489 I-0.07045 J0.01023
G02 X1.44777 Y-0.07798 I-0.06642 J0.04153
G02 X1.41578 Y-0.09137 I-0.04832 J0.07051
G02 X1.37841 Y-0.09097 I-0.01771 J0.09090
G02 X1.34175 Y-0.07478 I0.02116 J0.09745
G02 X1.31256 Y-0.04350 I0.06192 J0.08706
G02 X1.29703 Y-0.00075 I0.09717 J0.05951
G02 X1.29957 Y0.04738 I0.11972 J0.01781
G02 X1.32186 Y0.09316 I0.12404 J-0.03209
G02 X1.36226 Y0.12845 I0.10738 J-0.08217
G02 X1.41578 Y0.14613 I0.07050 J-0.12360
G02 X1.47467 Y0.14144 I0.01784 J-0.14830
G02 X1.52958 Y0.11305 I-0.04299 J-0.15042
G02 X1.57096 Y0.06353 I-0.10231 J-0.12755
G02 X1.59078 Y-0.00075 I-0.14990 J-0.08141
G02 X1.58395 Y-0.07041 I-0.17675 J-0.01785
G02 X1.54946 Y-0.13444 I-0.17668 J0.05387
G02 X1.49082 Y-0.18192 I-0.14763 J0.12239
G02 X1.41578 Y-0.20100 I-0.08535 J0.17854
G02 X1.33914 Y-0.18576 I0.00000 J0.20025
G02 X1.27418 Y-0.14235 I0.07663 J0.18501
G02 X1.23077 Y-0.07738 I0.14160 J0.14160
G02 X1.21553 Y-0.00075 I0.18501 J0.07663
G02 X1.23077 Y0.07588 I0.20025 J0.00000
G02 X1.27418 Y0.14085 I0.18501 J-0.07663
G02 X1.33914 Y0.18426 I0.14160 J-0.14160
G02 X1.41578 Y0.19950 I0.07663 J-0.18501
G02 X1.49241 Y0.18426 I0.00000 J-0.20025
G02 X1.55737 Y0.14085 I-0.07663 J-0.18501
G02 X1.60078 Y0.07588 I-0.14160 J-0.14160
G02 X1.61603 Y-0.00075 I-0.18501 J-0.07663
G02 X1.31565 Y-0.17417 I-0.20025 J0.00000
G02 Y0.17267 I0.10013 J0.17342
G02 X1.61603 Y-0.00075 I0.10013 J-0.17342
G01 X1.25006 Y-0.11366
G01 X1.15253 Y-0.17625
G02 Y0.17475 I0.27171 J0.17550
G01 X1.11974 Y-0.10987
G01 X1.01078 Y-0.14700
G02 Y0.14550 I0.39672 J0.14625
G01 X0.99389 Y-0.08813
G01 X0.88028 Y-0.11100
G02 Y0.10950 I0.52357 J0.11025
G01 X0.87139 Y-0.05254
G01 X0.75653 Y-0.06150
G01 Y0.06000
G00 Z0.19685
G00 X1.57373 Y0.12139
G00 Z0.01969
G01 Z-0.08000 F15.00
G01 X1.66553 Y0.19050 F30.00
G01 X1.69028 Y0.15225
G00 Z0.19685
G00 X1.58955 Y-0.09911
G00 Z0.01969
G01 Z-0.08000 F15.00
G01 X1.69028 Y-0.15375 F30.00
G01 X1.66778 Y-0.19200
G00 Z0.19685
G00 X1.66328 Y-0.19425
G00 Z-0.06031
G01 Z-0.08000 F15.00
G01 X1.67476 Y-0.25042 F30.00
G02 X0.80655 Y-0.14772 I-0.19875 J2.04098
G02 X0.66862 Y-0.07882 I0.25469 J0.68238
G02 X0.68756 Y0.09096 I0.06169 J0.07906
G02 X0.90002 Y0.17798 I0.42930 J-0.74529
G02 X1.69180 Y0.24843 I0.57478 J-1.97523
G02 X1.74958 Y0.17720 I-0.01237 J-0.06908
G01 Y-0.17720
G02 X1.68446 Y-0.24946 I-0.07033 J-0.00208
G01 X1.68537 Y-0.24936
G02 X1.67476 Y-0.25042 I-0.17762 J1.73254
G00 Z0.19685
G00 X1.47828 Y-0.00075
G00 Z-0.06031
G02 X1.38453 Y-0.05488 Z-0.07526 I-0.06250 J0.00000 F15.00
G02 Y0.05338 Z-0.09021 I0.03125 J0.05413
G02 X1.47828 Y-0.00075 Z-0.10516 I0.03125 J-0.05413
G02 X1.38453 Y-0.05488 Z-0.12010 I-0.06250 J0.00000
G02 Y0.05338 Z-0.13505 I0.03125 J0.05413
G02 X1.47828 Y-0.00075 Z-0.15000 I0.03125 J-0.05413
G02 X1.38453 Y-0.05488 I-0.06250 J0.00000
G02 Y0.05338 I0.03125 J0.05413
G02 X1.47828 Y-0.00075 I0.03125 J-0.05413
G02 X1.48002 Y-0.02736 I-0.06162 J-0.01739 F30.00
G02 X1.46991 Y-0.05489 I-0.07045 J0.01023
G02 X1.44777 Y-0.07798 I-0.06642 J0.04153
G02 X1.41578 Y-0.09137 I-0.04832 J0.07051
G02 X1.37841 Y-0.09097 I-0.01771 J0.09090
G02 X1.34175 Y-0.07478 I0.02116 J0.09745
G02 X1.31256 Y-0.04350 I0.06192 J0.08706
G02 X1.29703 Y-0.00075 I0.09717 J0.05951
G02 X1.29957 Y0.04738 I0.11972 J0.01781
G02 X1.32186 Y0.09316 I0.12404 J-0.03209
G02 X1.36226 Y0.12845 I0.10738 J-0.08217
G02 X1.41578 Y0.14613 I0.07050 J-0.12360
G02 X1.47467 Y0.14144 I0.01784 J-0.14830
G02 X1.52958 Y0.11305 I-0.04299 J-0.15042
G02 X1.57096 Y0.06353 I-0.10231 J-0.12755
G02 X1.59078 Y-0.00075 I-0.14990 J-0.08141
G02 X1.58395 Y-0.07041 I-0.17675 J-0.01785
G02 X1.54946 Y-0.13444 I-0.17668 J0.05387
G02 X1.49082 Y-0.18192 I-0.14763 J0.12239
G02 X1.41578 Y-0.20100 I-0.08535 J0.17854
G02 X1.33914 Y-0.18576 I0.00000 J0.20025
G02 X1.27418 Y-0.14235 I0.07663 J0.18501
G02 X1.23077 Y-0.07738 I0.14160 J0.14160
G02 X1.21553 Y-0.00075 I0.18501 J0.07663
G02 X1.23077 Y0.07588 I0.20025 J0.00000
G02 X1.27418 Y0.14085 I0.18501 J-0.07663
G02 X1.33914 Y0.18426 I0.14160 J-0.14160
G02 X1.41578 Y0.19950 I0.07663 J-0.18501
G02 X1.49241 Y0.18426 I0.00000 J-0.20025
G02 X1.55737 Y0.14085 I-0.07663 J-0.18501
G02 X1.60078 Y0.07588 I-0.14160 J-0.14160
G02 X1.61603 Y-0.00075 I-0.18501 J-0.07663
G02 X1.31565 Y-0.17417 I-0.20025 J0.00000
G02 Y0.17267 I0.10013 J0.17342
G02 X1.61603 Y-0.00075 I0.10013 J-0.17342
G01 X1.25006 Y-0.11366
G01 X1.15253 Y-0.17625
G02 Y0.17475 I0.27171 J0.17550
G01 X1.11974 Y-0.10987
G01 X1.01078 Y-0.14700
G02 Y0.14550 I0.39672 J0.14625
G01 X0.99389 Y-0.08813
G01 X0.88028 Y-0.11100
G02 Y0.10950 I0.52357 J0.11025
G01 X0.87139 Y-0.05254
G01 X0.75653 Y-0.06150
G01 Y0.06000
G00 Z0.19685
G00 X1.57373 Y0.12139
G00 Z-0.06031
G01 Z-0.15000 F15.00
G01 X1.66553 Y0.19050 F30.00
G01 X1.69028 Y0.15225
G00 Z0.19685
G00 X1.58955 Y-0.09911
G00 Z-0.06031
G01 Z-0.15000 F15.00
G01 X1.69028 Y-0.15375 F30.00
G01 X1.66778 Y-0.19200
G00 Z0.19685
G00 X1.66328 Y-0.19425
G00 Z-0.13031
G01 Z-0.15000 F15.00
G01 X1.67476 Y-0.25042 F30.00
G02 X0.80655 Y-0.14772 I-0.19875 J2.04098
G02 X0.66862 Y-0.07882 I0.25469 J0.68238
G02 X0.68756 Y0.09096 I0.06169 J0.07906
G02 X0.90002 Y0.17798 I0.42930 J-0.74529
G02 X1.69180 Y0.24843 I0.57478 J-1.97523
G02 X1.74958 Y0.17720 I-0.01237 J-0.06908
G01 Y-0.17720
G02 X1.68446 Y-0.24946 I-0.07033 J-0.00208
G01 X1.68537 Y-0.24936
G02 X1.67476 Y-0.25042 I-0.17762 J1.73254
G00 Z0.19685


(No. 2: Hole 2)
G00 X0.63739 Y-0.03758 Z0.19685
G00 Z0.01969
G01 Z-0.08000 F15.00
G01 X0.63276 Y-0.03947 F30.00
G02 X0.68504 Y0.09528 I0.09798 J0.03950
G02 X0.89862 Y0.18278 I0.43177 J-0.74951
G02 X1.69268 Y0.25335 I0.57613 J-1.97980
G02 X1.75458 Y0.17730 I-0.01323 J-0.07399
G01 Y-0.17730
G02 X1.68505 Y-0.25442 I-0.07531 J-0.00201
G01 X1.68587 Y-0.25434
G02 X0.80478 Y-0.15239 I-0.20981 J2.04518
G02 X0.66555 Y-0.08277 I0.25564 J0.68520
G02 X0.63276 Y-0.03947 I0.06460 J0.08300
G01 X0.63739 Y-0.03758
G00 Z0.00000
G01 Z-0.15000 F15.00
G01 X0.63276 Y-0.03947 F30.00
G02 X0.68504 Y0.09528 I0.09798 J0.03950
G02 X0.89862 Y0.18278 I0.43177 J-0.74951
G02 X1.69268 Y0.25335 I0.57613 J-1.97980
G02 X1.75458 Y0.17730 I-0.01323 J-0.07399
G01 Y-0.17730
G02 X1.68505 Y-0.25442 I-0.07531 J-0.00201
G01 X1.68587 Y-0.25434
G02 X0.80478 Y-0.15239 I-0.20981 J2.04518
G02 X0.66555 Y-0.08277 I0.25564 J0.68520
G02 X0.63276 Y-0.03947 I0.06460 J0.08300
G01 X0.63739 Y-0.03758
G00 Z0.00000
G00 Z0.19685

M05
M30
