(Project THF-HOBIT-JIG)
(Created by Estlcam version 11 build 11.245)
(Machining time about 00:00:07 hours)

(Required tools:)
(End mill 1/4)

G90
M03 S2000
G00 Z0.19685


(No. 1: Hole 6)
G00 X0.63457 Y-0.04779
G00 Z0.01969
G01 Z0.00000 F15.00 S2000
G01 Z-0.15000
G03 X0.70127 Y-0.13065 I0.22057 J0.10927 F30.00
G03 X0.81750 Y-0.18848 I0.18747 J0.23105
G03 X1.69083 Y-0.26285 I0.60805 J1.97552
G03 X1.75173 Y-0.18700 I-0.01424 J0.07381
G01 Y0.18700
G03 X1.68320 Y0.26403 I-0.07532 J0.00199
G03 X0.77647 Y0.17489 I-0.25617 J-2.05049
G03 X0.63647 Y0.05216 I0.09839 J-0.25344
G03 X0.62646 Y-0.01852 I0.11279 J-0.05203
G01 X0.62635 Y-0.01803
G03 X0.63457 Y-0.04779 I0.12556 J0.01866
G00 Z0.19685

M05
M30
